public/images/case-studies/maikeinc/feature3.svg

<svg width="58" height="64" viewBox="0 0 58 64" fill="none" xmlns="http://www.w3.org/2000/svg">
<path d="M13.8666 14.9333C15.3433 14.9333 16.7869 14.4954 18.0148 13.675C19.2427 12.8545 20.1997 11.6884 20.7649 10.324C21.33 8.95968 21.4779 7.45839 21.1898 6.00999C20.9017 4.5616 20.1905 3.23117 19.1463 2.18694C18.1021 1.14271 16.7716 0.431576 15.3232 0.143473C13.8749 -0.14463 12.3736 0.00323518 11.0092 0.568369C9.64484 1.1335 8.47871 2.09052 7.65826 3.31841C6.83781 4.5463 6.3999 5.9899 6.3999 7.46667C6.40216 9.44626 7.18955 11.3441 8.58933 12.7439C9.98912 14.1437 11.887 14.9311 13.8666 14.9333ZM13.8666 2.13334C14.9214 2.13334 15.9525 2.44613 16.8296 3.03217C17.7067 3.6182 18.3903 4.45115 18.7939 5.42569C19.1976 6.40023 19.3032 7.47259 19.0974 8.50715C18.8916 9.54172 18.3837 10.492 17.6378 11.2379C16.8919 11.9838 15.9416 12.4917 14.9071 12.6975C13.8725 12.9033 12.8001 12.7977 11.8256 12.394C10.8511 11.9904 10.0181 11.3068 9.43206 10.4297C8.84603 9.55265 8.53324 8.5215 8.53324 7.46667C8.53493 6.0527 9.09738 4.69713 10.0972 3.6973C11.097 2.69748 12.4526 2.13503 13.8666 2.13334Z" fill="#7F8284"/>
<path d="M5.66827 12.5303L4.85867 12.9921C3.38578 13.8313 2.16073 15.0446 1.30753 16.5094C0.454327 17.9741 0.00326384 19.6383 0 21.3335V27.7335C0 28.5822 0.337142 29.3961 0.937258 29.9962C1.53737 30.5963 2.35131 30.9335 3.2 30.9335H24.5333C25.382 30.9335 26.196 30.5963 26.7961 29.9962C27.3962 29.3961 27.7333 28.5822 27.7333 27.7335V21.3335C27.7301 19.6383 27.279 17.9741 26.4258 16.5094C25.5726 15.0446 24.3476 13.8313 22.8747 12.9921L22.0651 12.5303L21.4987 13.2769C20.6062 14.4562 19.4527 15.4126 18.1285 16.0711C16.8043 16.7296 15.3455 17.0723 13.8667 17.0723C12.3878 17.0723 10.929 16.7296 9.60486 16.0711C8.28068 15.4126 7.12711 14.4562 6.23467 13.2769L5.66827 12.5303ZM13.8667 19.2001C15.5071 19.2049 17.13 18.8624 18.6287 18.1953C20.1273 17.5281 21.4678 16.5514 22.5621 15.3292C23.5022 16.0233 24.2665 16.9279 24.7941 17.9706C25.3216 19.0132 25.5976 20.165 25.6 21.3335V27.7335C25.6 28.0164 25.4876 28.2877 25.2876 28.4877C25.0875 28.6878 24.8162 28.8001 24.5333 28.8001H3.2C2.9171 28.8001 2.64579 28.6878 2.44575 28.4877C2.24571 28.2877 2.13333 28.0164 2.13333 27.7335V21.3335C2.13571 20.165 2.41172 19.0132 2.93925 17.9706C3.46679 16.9279 4.23118 16.0233 5.1712 15.3292C6.26548 16.5514 7.606 17.5281 9.10467 18.1953C10.6033 18.8624 12.2262 19.2049 13.8667 19.2001Z" fill="#7F8284"/>
<path d="M26.6665 56.5331C26.6688 58.5127 27.4562 60.4105 28.8559 61.8103C30.2557 63.2101 32.1536 63.9975 34.1332 63.9997H50.1332C52.1128 63.9975 54.0106 63.2101 55.4104 61.8103C56.8102 60.4105 57.5976 58.5127 57.5998 56.5331V40.5331C57.5976 38.5535 56.8102 36.6556 55.4104 35.2558C54.0106 33.8561 52.1128 33.0687 50.1332 33.0664H34.1332C32.1536 33.0687 30.2557 33.8561 28.8559 35.2558C27.4562 36.6556 26.6688 38.5535 26.6665 40.5331V56.5331ZM55.4665 56.5331C55.4648 57.947 54.9024 59.3026 53.9025 60.3024C52.9027 61.3023 51.5471 61.8647 50.1332 61.8664H34.1332C32.7192 61.8647 31.3636 61.3023 30.3638 60.3024C29.364 59.3026 28.8015 57.947 28.7998 56.5331V43.7331H55.4665V56.5331ZM28.7998 40.5331C28.8015 39.1191 29.364 37.7635 30.3638 36.7637C31.3636 35.7639 32.7192 35.2014 34.1332 35.1997H50.1332C51.5471 35.2014 52.9027 35.7639 53.9025 36.7637C54.9024 37.7635 55.4648 39.1191 55.4665 40.5331V41.5997H28.7998V40.5331Z" fill="#FF6B00"/>
<path d="M33.8242 37.6423C33.6746 37.494 33.4846 37.3933 33.2779 37.3529C33.0712 37.3124 32.8572 37.3341 32.6628 37.415C32.4684 37.496 32.3023 37.6328 32.1855 37.808C32.0687 37.9832 32.0063 38.1891 32.0063 38.3997C32.0063 38.6103 32.0687 38.8162 32.1855 38.9914C32.3023 39.1666 32.4684 39.3033 32.6628 39.3843C32.8572 39.4653 33.0712 39.4869 33.2779 39.4465C33.4846 39.406 33.6746 39.3053 33.8242 39.157C33.9206 39.055 33.9966 38.9355 34.0482 38.805C34.1045 38.6773 34.1335 38.5392 34.1335 38.3997C34.1335 38.2601 34.1045 38.1221 34.0482 37.9943C33.9992 37.8625 33.9229 37.7425 33.8242 37.6423Z" fill="#FF6B00"/>
<path d="M37.12 37.3546C37.0532 37.3663 36.9884 37.3878 36.928 37.4186C36.8598 37.4422 36.7949 37.4744 36.7349 37.5146C36.6796 37.5543 36.6265 37.597 36.576 37.6426C36.3777 37.8448 36.2666 38.1168 36.2666 38.4C36.2666 38.6832 36.3777 38.9551 36.576 39.1573L36.7349 39.2853C36.7949 39.3255 36.8598 39.3578 36.928 39.3813C36.9884 39.4121 37.0532 39.4337 37.12 39.4453C37.1905 39.4572 37.2618 39.4643 37.3333 39.4666C37.5452 39.4679 37.7526 39.406 37.9292 39.2889C38.1057 39.1717 38.2434 39.0047 38.3247 38.809C38.4059 38.6133 38.427 38.3979 38.3854 38.1902C38.3437 37.9824 38.2411 37.7918 38.0907 37.6426C37.9634 37.5209 37.809 37.4313 37.6402 37.3812C37.4714 37.3311 37.293 37.322 37.12 37.3546Z" fill="#FF6B00"/>
<path d="M41.1946 37.4184C41.0641 37.4699 40.9446 37.5459 40.8426 37.6424C40.6443 37.8446 40.5332 38.1165 40.5332 38.3997C40.5332 38.6829 40.6443 38.9548 40.8426 39.157C40.9446 39.2534 41.0641 39.3295 41.1946 39.381C41.3228 39.4357 41.4605 39.4647 41.5999 39.4664C41.8118 39.4676 42.0192 39.4057 42.1958 39.2886C42.3723 39.1715 42.51 39.0044 42.5913 38.8087C42.6725 38.6131 42.6936 38.3976 42.652 38.1899C42.6103 37.9822 42.5077 37.7916 42.3573 37.6424C42.2073 37.4944 42.0168 37.3941 41.8099 37.3542C41.6029 37.3144 41.3888 37.3367 41.1946 37.4184Z" fill="#FF6B00"/>
<path d="M43.0582 26.5281L46.9334 29.8668L50.2721 25.9916L50.0449 22.9334L47.5734 25.7953C46.6322 21.2265 44.1453 17.1215 40.5316 14.1717C36.9179 11.2219 32.3982 9.6074 27.7334 9.6001V11.7334C31.8071 11.7393 35.7606 13.1147 38.9583 15.6386C42.156 18.1625 44.4122 21.6882 45.3643 25.6492L42.831 23.4668L43.0582 26.5281Z" fill="#7F8284"/>
<path d="M8.1416 37.472L4.2664 34.1333L0.927734 38.0085L1.15493 41.0666L3.6264 38.2048C4.56764 42.7736 7.05448 46.8785 10.6682 49.8284C14.2819 52.7782 18.8016 54.3927 23.4664 54.4V52.2666C19.3927 52.2608 15.4392 50.8854 12.2415 48.3615C9.04379 45.8376 6.78756 42.3118 5.83547 38.3509L8.3688 40.5333L8.1416 37.472Z" fill="#7F8284"/>
</svg>

<svg xmlns="http://www.w3.org/2000/svg" width="58" height="64" fill="none" xmlns:v="https://vecta.io/nano"><path d="M13.867 14.933a7.47 7.47 0 0 0 4.148-1.258c1.228-.82 2.185-1.987 2.75-3.351a7.47 7.47 0 0 0 .425-4.314 7.46 7.46 0 0 0-2.044-3.823C18.101 1.143 16.772.432 15.323.143a7.46 7.46 0 0 0-4.314.425 7.47 7.47 0 0 0-3.351 2.75C6.837 4.546 6.4 5.99 6.4 7.467c.002 1.98.79 3.877 2.189 5.277a7.47 7.47 0 0 0 5.277 2.189zm0-12.8c1.055 0 2.086.313 2.963.899s1.561 1.419 1.964 2.394.509 2.047.303 3.081a5.34 5.34 0 0 1-1.46 2.731c-.746.746-1.696 1.254-2.731 1.46s-2.107.1-3.081-.303a5.34 5.34 0 0 1-2.394-1.964c-.587-.877-.899-1.908-.899-2.963a5.34 5.34 0 0 1 5.333-5.333zM5.668 12.53l-.81.462A9.62 9.62 0 0 0 0 21.334v6.4a3.2 3.2 0 0 0 3.2 3.2h21.333a3.2 3.2 0 0 0 3.2-3.2v-6.4a9.62 9.62 0 0 0-4.859-8.341l-.81-.462-.566.747a9.57 9.57 0 0 1-15.264 0l-.566-.747zm8.198 6.67a11.63 11.63 0 0 0 4.762-1.005 11.62 11.62 0 0 0 3.933-2.866 7.48 7.48 0 0 1 2.232 2.641 7.5 7.5 0 0 1 .806 3.363v6.4c0 .283-.112.554-.312.754s-.471.312-.754.312H3.2c-.283 0-.554-.112-.754-.312s-.312-.471-.312-.754v-6.4a7.47 7.47 0 0 1 .806-3.363 7.48 7.48 0 0 1 2.232-2.641 11.63 11.63 0 0 0 3.933 2.866c1.498.667 3.122 1.01 4.762 1.005z" fill="#7f8284"/><g fill="#ff6b00"><path d="M26.667 56.533c.002 1.98.79 3.877 2.189 5.277s3.298 2.187 5.277 2.189h16c1.98-.002 3.877-.79 5.277-2.189s2.187-3.298 2.189-5.277v-16c-.002-1.98-.79-3.877-2.189-5.277s-3.298-2.187-5.277-2.189h-16c-1.98.002-3.878.79-5.277 2.189s-2.187 3.298-2.189 5.277v16zm28.8 0a5.34 5.34 0 0 1-5.333 5.333h-16a5.34 5.34 0 0 1-5.333-5.333v-12.8h26.667v12.8zm-26.667-16a5.34 5.34 0 0 1 5.333-5.333h16a5.34 5.34 0 0 1 5.333 5.333V41.6H28.8v-1.067z"/><path d="M33.824 37.642a1.07 1.07 0 0 0-1.161-.227 1.07 1.07 0 0 0-.477.393c-.117.175-.179.381-.179.592s.062.416.179.592.283.312.477.393a1.06 1.06 0 0 0 1.161-.228 1.11 1.11 0 0 0 .224-.352c.052-.131.085-.266.085-.405s-.029-.278-.085-.405a.99.99 0 0 0-.224-.352zm3.296-.287a.68.68 0 0 0-.192.064.84.84 0 0 0-.193.096l-.159.128a1.08 1.08 0 0 0 0 1.515l.159.128a.87.87 0 0 0 .193.096.68.68 0 0 0 .192.064 1.59 1.59 0 0 0 .213.021 1.07 1.07 0 0 0 1.052-1.277 1.07 1.07 0 0 0-.295-.548 1.11 1.11 0 0 0-.971-.288zm4.075.063a1.1 1.1 0 0 0-.352.224 1.08 1.08 0 0 0 0 1.515 1.1 1.1 0 0 0 .352.224c.128.055.266.084.405.085a1.07 1.07 0 0 0 .596-.178 1.06 1.06 0 0 0 .395-.48c.081-.196.102-.411.061-.619s-.144-.398-.295-.547-.34-.248-.547-.288a1.07 1.07 0 0 0-.615.064z"/></g><path d="M43.058 26.528l3.875 3.339 3.339-3.875-.227-3.058-2.471 2.862A20.29 20.29 0 0 0 27.733 9.6v2.133a18.16 18.16 0 0 1 17.631 13.916l-2.533-2.182.227 3.061zM8.142 37.472l-3.875-3.339-3.339 3.875.227 3.058 2.471-2.862A20.29 20.29 0 0 0 23.466 54.4v-2.133A18.16 18.16 0 0 1 5.835 38.351l2.533 2.182-.227-3.061z" fill="#7f8284"/></svg>
